X:70
T:yr esgob a'r gwladwr [the bishop and the farmer]
T:(glyn tawe)
C:traddodiadol
S:from the singing of Thos. james
H:Llanofer inn, Pontypridd c1858
N:transpose up 2 semitones for A dor.
Z:cerimathos
M:2/2
L:1/4
Q:1/2=70
K:Gdor
B|AGBd|cAzG|BBcc|d2zG|
d2d/d/B|cdze|fdBG|A2zf|
dfge|ddzA|BBBG|A2zc|
dfge|ddzG|ddcA|G3:|
